src/assets/img/smile.svg

<svg width="30" height="30" viewBox="0 0 30 30" fill="none" xmlns="http://www.w3.org/2000/svg">
<path fill-rule="evenodd" clip-rule="evenodd" d="M0 15C0 6.71573 6.71573 0 15 0C23.2843 0 30 6.71573 30 15C30 23.2843 23.2843 30 15 30C6.71573 30 0 23.2843 0 15ZM15 2C7.8203 2 2 7.8203 2 15C2 22.1797 7.8203 28 15 28C22.1797 28 28 22.1797 28 15C28 7.8203 22.1797 2 15 2ZM10 12H8V10H10V12ZM22 12H20V10H22V12ZM9.2 16.6L9.8 17.4C12.4 20.8667 17.6 20.8667 20.2 17.4L20.8 16.6L22.4 17.8L21.8 18.6C18.4 23.1333 11.6 23.1333 8.2 18.6L7.6 17.8L9.2 16.6Z" fill="#FF868E"/>
</svg>

<svg width="30" height="30" viewBox="0 0 30 30" fill="none" xmlns="http://www.w3.org/2000/svg"><path fill-rule="evenodd" clip-rule="evenodd" d="M0 15C0 6.716 6.716 0 15 0c8.284 0 15 6.716 15 15 0 8.284-6.716 15-15 15-8.284 0-15-6.716-15-15zM15 2C7.82 2 2 7.82 2 15s5.82 13 13 13 13-5.82 13-13S22.18 2 15 2zm-5 10H8v-2h2v2zm12 0h-2v-2h2v2zM9.2 16.6l.6.8c2.6 3.467 7.8 3.467 10.4 0l.6-.8 1.6 1.2-.6.8c-3.4 4.533-10.2 4.533-13.6 0l-.6-.8 1.6-1.2z" fill="#FF868E"/></svg>
